packages/admin/admin-icons/icons/copy.svg

<svg xmlns="http://www.w3.org/2000/svg" width="16" height="16" viewBox="0 0 16 16"><path fill="#242424" fill-rule="evenodd" d="M6.5,2 L10.5395916,2.00156876 L10.5898756,2.00805567 L10.6547323,2.02454397 L10.7267859,2.05438955 L10.7523596,2.06826466 L10.8221436,2.11759373 L14.8535534,6.14644661 C15.147537,6.44043021 14.9728055,6.92918427 14.586032,6.99304488 L14.5,7 L10.5,7 C10.2545401,7 10.0503916,6.82312484 10.0080557,6.58987563 L10,6.5 L10,3 L6.5,3 C6.25454011,3 6.05039163,3.17687516 6.00805567,3.41012437 L6,3.5 L6,14.5 C6,14.7454599 6.17687516,14.9496084 6.41012437,14.9919443 L6.5,15 L13.5,15 C13.7454599,15 13.9496084,14.8231248 13.9919443,14.5898756 L14,14.5 L14,9 C14,8.72385763 14.2238576,8.5 14.5,8.5 C14.7454599,8.5 14.9496084,8.67687516 14.9919443,8.91012437 L15,9 L15,14.5 C15,15.2796961 14.4051119,15.9204487 13.64446,15.9931334 L13.5,16 L6.5,16 C5.72030388,16 5.07955132,15.4051119 5.00686658,14.64446 L5,14.5 L5,3.5 C5,2.72030388 5.59488808,2.07955132 6.35553999,2.00686658 L6.5,2 Z M2.5,0 L6.53959156,0.00156876395 L6.58987563,0.00805566941 L6.65473232,0.024543968 L6.72678591,0.0543895452 L6.75235957,0.0682646574 L6.82214364,0.117593731 L7.705,1 L2.5,1 C2.25454011,1 2.05039163,1.17687516 2.00805567,1.41012437 L2,1.5 L2,12.5 C2,12.7454599 2.17687516,12.9496084 2.41012437,12.9919443 L2.5,13 L4,13 L4,14 L2.5,14 C1.72030388,14 1.07955132,13.4051119 1.00686658,12.64446 L1,12.5 L1,1.5 C1,0.720303883 1.59488808,0.0795513218 2.35553999,0.00686657806 L2.5,0 Z M11,3.707 L11,6 L13.293,6 L11,3.707 Z"/></svg>

<svg width="16" height="16" fill="none" viewBox="0 0 16 16">
  <path fill="#242424" fill-rule="evenodd" d="m2.5 0 4.04.002.05.006.064.017.072.03.026.013.07.05.883.882H2.5a.5.5 0 0 0-.492.41L2 1.5v11a.5.5 0 0 0 .41.492L2.5 13H4v1H2.5a1.5 1.5 0 0 1-1.494-1.355L1 12.5v-11A1.5 1.5 0 0 1 2.355.007L2.5 0Z M10.54 2.002 6.5 2l-.145.007A1.5 1.5 0 0 0 5 3.5v11l.006.145A1.5 1.5 0 0 0 6.5 16h7l.144-.007a1.5 1.5 0 0 0 1.355-1.493V9l-.008-.09A.5.5 0 0 0 14 9v5.5l-.008.09a.5.5 0 0 1-.492.41h-7l-.09-.008A.5.5 0 0 1 6 14.5v-11l.009-.09A.5.5 0 0 1 6.5 3H10v3.5l.008.09A.5.5 0 0 0 10.5 7h4l.085-.007a.5.5 0 0 0 .268-.847l-4.031-4.028-.07-.05-.026-.014-.072-.03-.065-.016-.05-.006ZM11 4.465a.492.492 0 0 1 0 .063V6h2.293L11 3.707v.758Z" clip-rule="evenodd"/>
</svg>
